X:4525
T:Pols etter Edvard Langemarks
L:1/8
M:3/4
O:Sweden
R:Polska
Z:Carol Turner
%%TUNEURL: http://www.leeds.ac.uk/music/Info/RRTuneBk/gettune/00000dfe.html
%%ID:00000dfe
K:A
|: A,2 (3CA,C E2 | A2 (3cAc e2 |1 \
(3dBd (3cAc B>A | G<A c<A E>C :|2 (3dBd (3cAc B>G | A2 A4 :|
a- |:
a>g e<^d e>f | g<e b<g e>c |1 \
(3dBd (3cAc B>A | G<A c<A E2 :|2 (3dBd (3cAc B>G | A2 A4 :|
